icon.svg

<svg width="94" height="94" viewBox="0 0 201 201" fill="none" xmlns="http://www.w3.org/2000/svg">
    <path d="M100.5 201C156.005 201 201 156.005 201 100.5C201 44.9954 156.005 0 100.5 0C44.9954 0 0 44.9954 0 100.5C0 156.005 44.9954 201 100.5 201Z" fill="#4DC0B5"/>
    <path d="M120.467 55.4759C120.756 55.5595 121.026 55.6997 121.262 55.8885C121.497 56.0773 121.693 56.3108 121.838 56.5758C121.983 56.8408 122.075 57.132 122.108 57.4327C122.141 57.7333 122.114 58.0375 122.03 58.3279L96.0094 148.327C95.9261 148.618 95.7865 148.889 95.5987 149.125C95.4108 149.361 95.1784 149.558 94.9147 149.703C94.651 149.849 94.3612 149.941 94.062 149.975C93.7628 150.008 93.46 149.981 93.171 149.897L81.5429 146.509C81.2534 146.425 80.9832 146.285 80.7478 146.096C80.5124 145.907 80.3165 145.674 80.1713 145.409C80.026 145.144 79.9343 144.853 79.9015 144.552C79.8686 144.251 79.8952 143.947 79.9797 143.657L106 53.6575C106.083 53.3671 106.223 53.096 106.411 52.8598C106.599 52.6236 106.831 52.4269 107.095 52.2811C107.358 52.1353 107.648 52.0432 107.947 52.0101C108.247 51.9769 108.549 52.0034 108.838 52.088L120.467 55.4759Z" fill="white"/>
    <path d="M161.281 99.3271L133.81 73.449C133.366 73.0341 132.777 72.8116 132.171 72.8295C131.564 72.8474 130.989 73.1043 130.57 73.5447L122.278 82.4336C122.068 82.6578 121.906 82.9219 121.8 83.2103C121.694 83.4987 121.647 83.8055 121.661 84.1125C121.676 84.4195 121.751 84.7204 121.884 84.9975C122.016 85.2747 122.203 85.5223 122.432 85.7258L139.697 101L122.428 116.255C122.197 116.457 122.009 116.705 121.875 116.982C121.742 117.259 121.665 117.56 121.651 117.868C121.637 118.176 121.684 118.483 121.791 118.772C121.898 119.06 122.062 119.324 122.274 119.547L130.566 128.429C130.771 128.65 131.017 128.829 131.291 128.955C131.565 129.081 131.861 129.151 132.162 129.162C132.464 129.173 132.764 129.124 133.046 129.017C133.328 128.911 133.587 128.75 133.807 128.543L161.278 102.684C161.508 102.471 161.693 102.211 161.819 101.922C161.945 101.634 162.011 101.322 162.011 101.007C162.011 100.691 161.947 100.379 161.821 100.09C161.696 99.8012 161.512 99.5413 161.281 99.3271V99.3271ZM79.7319 82.4451L71.4397 73.5638C71.2336 73.3433 70.986 73.1658 70.7114 73.0416C70.4367 72.9174 70.1403 72.8489 69.8392 72.84C69.5381 72.8311 69.2382 72.882 68.9568 72.9898C68.6753 73.0976 68.4178 73.2601 68.1991 73.4681L40.7281 99.308C40.4987 99.5219 40.3157 99.781 40.1905 100.069C40.0653 100.357 40.0007 100.668 40.0007 100.983C40.0007 101.297 40.0653 101.608 40.1905 101.896C40.3157 102.185 40.4987 102.444 40.7281 102.658L68.1991 128.517C68.4169 128.726 68.674 128.891 68.9557 129C69.2373 129.109 69.5377 129.16 69.8394 129.151C70.1411 129.142 70.438 129.073 70.7128 128.948C70.9875 128.822 71.2347 128.643 71.4397 128.421L79.7319 119.54C79.9413 119.315 80.1036 119.051 80.2095 118.763C80.3153 118.474 80.3624 118.168 80.348 117.861C80.3336 117.554 80.258 117.253 80.1256 116.976C79.9933 116.699 79.8069 116.451 79.5775 116.247L62.3031 101L79.5737 85.7449C79.8064 85.5428 79.9958 85.2954 80.1304 85.0176C80.265 84.7399 80.3421 84.4376 80.3568 84.129C80.3716 83.8205 80.3239 83.5121 80.2165 83.2227C80.109 82.9332 79.9442 82.6687 79.7319 82.4451V82.4451Z" fill="white"/>
</svg>

<svg width="201" height="201" fill="none" xmlns="http://www.w3.org/2000/svg"><path d="M100.5 201c55.505 0 100.5-44.995 100.5-100.5S156.005 0 100.5 0 0 44.995 0 100.5 44.995 201 100.5 201z" fill="#4DC0B5"/><g clip-path="url(#clip0)" fill="#fff"><path opacity=".4" d="M120.467 55.476a2.292 2.292 0 0 1 1.641 1.957c.033.3.006.605-.078.895l-26.02 89.999a2.296 2.296 0 0 1-1.948 1.648c-.3.033-.602.006-.891-.078l-11.628-3.388a2.288 2.288 0 0 1-1.372-1.1 2.3 2.3 0 0 1-.191-1.752l26.02-90a2.294 2.294 0 0 1 1.947-1.647c.3-.033.602-.007.891.078l11.629 3.388z"/><path d="M161.281 99.327L133.81 73.45a2.301 2.301 0 0 0-3.24.096l-8.292 8.889a2.291 2.291 0 0 0-.617 1.678 2.304 2.304 0 0 0 .771 1.614L139.697 101l-17.269 15.255a2.291 2.291 0 0 0-.637 2.517c.107.288.271.552.483.775l8.292 8.882a2.3 2.3 0 0 0 1.596.733 2.283 2.283 0 0 0 1.645-.619l27.471-25.859a2.284 2.284 0 0 0 .733-1.677 2.293 2.293 0 0 0-.73-1.68zm-81.55-16.882l-8.291-8.881a2.287 2.287 0 0 0-1.6-.724 2.278 2.278 0 0 0-1.64.628l-27.472 25.84a2.287 2.287 0 0 0-.538 2.588c.126.289.309.548.538.762L68.2 128.517a2.26 2.26 0 0 0 2.514.431c.274-.126.522-.305.727-.527l8.292-8.881a2.311 2.311 0 0 0 .616-1.679 2.303 2.303 0 0 0-.77-1.614L62.303 101l17.27-15.255a2.28 2.28 0 0 0 .784-1.616 2.29 2.29 0 0 0-.625-1.684z"/></g><defs><clipPath id="clip0"><path fill="#fff" d="M40 52h122v98H40z"/></clipPath></defs></svg>
